X:27
T:No Matter For That. JBi.27
M:C
L:1/8
Q:1/2=90
S:James Biggins MS, Leeds, 1779.
R:.Scots Measure
O:England
A:Yorkshire
Z:vmp.Nick Barber & Chris Partington..
K:F
c|fgagf2c2|defd cAGF|fgag afed|cdc=Bc3:|!
d|Tc2ABc2fd|TB2GATB2gB|{B}A2GF dBAG|FGFEF3|]

